X:1
T:Dili, 87.87 D
T:Dili, 87.87 D
T:Hubert Platt Main, 1875
T:Public Domain Courtesy of the Cyber Hymnal™
C:Hubert Platt Main, 1875
Z:Public Domain
Z:Courtesy of the Cyber Hymnal™
%%score ( 1 2 ) ( 3 4 )
L:1/8
Q:1/4=107
M:4/4
K:G
V:1 treble 
V:2 treble 
V:3 bass 
V:4 bass 
V:1
 [B,D]2 D2 (EF) G2 | [DA]2 [Fd]2 ([GB][DA]) [DG]2 | [Fc]2 [GB]2 [DA]2 [^CG]2 | [DF]2 [^CE]2 D4 | %4
 [B,D]2 D2 (EF) G2 | [DA]2 [Fd]2 ([GB][DA]) [DG]2 | [DB]2 [F^c]2 [Ad]2 [Ge]2 | [Fd]2 [E^c]2 [Fd]4 | %8
 [Fd]2 [DF]2 (GA) [GB]2 | [Ac]2 [GB]2 [GB]2 [FA]2 | [DA]2 [Ad]2 [GB]2 [EG]2 | [DF]2 [^CE]2 D4 | %12
 [B,D]2 D2 (EF) G2 | [DA]2 [Fd]2 ([GB][DA]) [DG]2 | [Ge]2 [FA]2 [Gd]2 (G[Ac]) | %15
 [GB]2 [DA]2 [DG]4 |] %16
V:2
 x2 D2 C2 (B,^C) | x8 | x8 | x4 D4 | x2 D2 C2 (B,^C) | x8 | x8 | x8 | x4 D2 x2 | x8 | x8 | x4 D4 | %12
 x2 D2 C2 (B,^C) | x8 | x6 G x | x8 |] %16
V:3
 [G,,G,]2 [B,,G,]2 [C,G,]2 [E,G,]2 | [F,D]2 [D,D]2 (DC) [G,B,]2 | [A,D]2 [G,D]2 [F,D]2 [E,A,]2 | %3
 [D,A,]2 (A,G,) [D,F,]4 | [G,,G,]2 [B,,G,]2 [C,G,]2 [E,G,]2 | [F,D]2 [D,D]2 (DC) [G,B,]2 | %6
 G,2 [E,A,]2 [F,D]2 [G,B,]2 | A,2 [A,,A,]2 [D,A,]4 | [D,A,]2 [D,C]2 (B,A,) [D,G,]2 | %9
 [F,D]2 [G,D]2 [D,D]2 [D,D]2 | [D,D]2 [F,D]2 [G,D]2 [G,B,]2 | A,2 (A,G,) [D,F,]4 | %12
 [G,,G,]2 [B,,G,]2 [C,G,]2 [E,G,]2 | [F,D]2 [D,D]2 (DC) [G,B,]2 | %14
 [C,C]2 [C,D]2 [C,C]2 ([E,B,][C,E]) | [D,D]2 [D,C]2 [G,,B,]4 |] %16
V:4
 x8 | x4 G,2 x2 | x8 | x2 A,,2 x4 | x8 | x4 G,2 x2 | G,2 x6 | A,2 x6 | x4 D,2 x2 | x8 | x8 | %11
 A,2 A,,2 x4 | x8 | x4 G,2 x2 | x8 | x8 |] %16

